assets/thumbs-up.svg

<svg xmlns="http://www.w3.org/2000/svg" fill="none" viewBox="0 0 23 28">
  <path stroke="#2A2238" stroke-width="1.5" d="M14.7058 10.6934c.2509-.0347.5026-.0636.7549-.0869 1.2324-.1123 2.8127-.1149 4.1753.3386.6646.2221 1.3615.9272 1.666 1.8015.2596.751.2241 1.6186-.3254 2.4151l-.2489.3606.192.3939c.0811.1665.1467.3438.1991.525.1151.404.1721.862.1721 1.3176 0 .4555-.057.9135-.1721 1.3175-.0592.2049-.1323.3985-.2256.5732l-.1713.3205.1455.3331c.1936.4433.1403.9974-.028 1.5028-.1739.5001-.4279.9686-.7521 1.3872l-.2511.3241.1373.3862c.0626.1763.0921.3742.0921.5772 0 .4013-.1186.8441-.3518 1.2522l-.0005.0007c-.4669.8192-1.4044 1.5165-2.793 1.5165h-6.2338c-1.00439 0-1.74645-.1336-2.35982-.345-.5513-.2018-1.07817-.465-1.57069-.7845l.00006-.0001-.01075-.0067-.0855-.0535h.00003l-.00737-.0045c-.93942-.5722-1.93171-1.173-3.99362-1.3911C1.61346 24.5527.75 23.7207.75 22.6567v-7.1243c0-1.0621.8693-1.8819 1.864-2.1528l.00063-.0002c1.69653-.4636 3.1049-1.5583 4.15825-2.7344l.0007-.0008c1.05334-1.17934 1.73979-2.42637 1.99947-3.17217l.00046-.00133c.38678-1.11758.67199-2.91223.8018-4.80704l.00148-.02155C9.67436 1.41299 10.8379.509752 12.043.808951c.0004.000102.0008.000205.0012.000308l.4622.11688.0016.0004c.6.150321 1.0958.579321 1.2607 1.187131.3725 1.38167.9051 4.26659.1044 7.6648l-.2508 1.06463 1.0835-.1497Z"/>
</svg>

<svg width="23" height="28" viewBox="0 0 23 28" fill="none" xmlns="http://www.w3.org/2000/svg">
<path d="M14.7058 10.6934C14.9567 10.6587 15.2084 10.6298 15.4607 10.6065C16.6931 10.4942 18.2734 10.4916 19.636 10.9451C20.3006 11.1672 20.9975 11.8723 21.302 12.7466C21.5616 13.4976 21.5261 14.3652 20.9766 15.1617L20.7277 15.5223L20.9197 15.9162C21.0008 16.0827 21.0664 16.26 21.1188 16.4412C21.2339 16.8452 21.2909 17.3032 21.2909 17.7588C21.2909 18.2143 21.2339 18.6723 21.1188 19.0763C21.0596 19.2812 20.9865 19.4748 20.8932 19.6495L20.7219 19.97L20.8674 20.3031C21.061 20.7464 21.0077 21.3005 20.8394 21.8059C20.6655 22.306 20.4115 22.7745 20.0873 23.1931L19.8362 23.5172L19.9735 23.9034C20.0361 24.0797 20.0656 24.2776 20.0656 24.4806C20.0656 24.8819 19.947 25.3247 19.7138 25.7328L19.7133 25.7335C19.2464 26.5527 18.3089 27.25 16.9203 27.25H10.6865C9.68211 27.25 8.94005 27.1164 8.32668 26.905C7.77538 26.7032 7.24851 26.44 6.75599 26.1205L6.75605 26.1204L6.7453 26.1137L6.6598 26.0602L6.65983 26.0602L6.65246 26.0557C5.71304 25.4835 4.72075 24.8827 2.65884 24.6646C1.61346 24.5527 0.75 23.7207 0.75 22.6567V15.5324C0.75 14.4703 1.6193 13.6505 2.614 13.3796L2.61463 13.3794C4.31116 12.9158 5.71953 11.8211 6.77288 10.645L6.77358 10.6442C7.82692 9.46486 8.51337 8.21783 8.77305 7.47203L8.77351 7.4707C9.16029 6.35312 9.4455 4.55847 9.57531 2.66366L9.57679 2.64211C9.67436 1.41299 10.8379 0.509752 12.043 0.808951C12.0434 0.809053 12.0438 0.809156 12.0442 0.809259L12.5064 0.926139L12.508 0.926539C13.108 1.07686 13.6038 1.50586 13.7687 2.11367C14.1412 3.49534 14.6738 6.38026 13.8731 9.77847L13.6223 10.8431L14.7058 10.6934Z" stroke="#2A2238" stroke-width="1.5"/>
</svg>
